X: 5
T: Devanny's Goat
R: reel
M: 4/4
L: 1/8
K: Dmaj
DF ~F2 AFAB | df{g}fe dBAF | DF ~F2 BFAF | E2 ED EGFE |
DF ~F2 AFAB | df{g}fe dBAd | fedB AFDF |1 {AB}AFEF D2 FE :|2 AFEF D4 |]
fa{b}af {b}afdf | afef dB ~B2 | ABde fAdf | e2 ef edBd |
Ad ~d2 fd ~d2 | edfd edBd | A2 dB AFDF |1 AFEF D4 :|2 AFEF D2 FE |]


Tune 2881	Setting 28166

